astro/public/img/icons/dl-backend-api.svg

<?xml version="1.0" encoding="UTF-8"?>
<svg width="54px" height="54px" viewBox="0 0 54 54" version="1.1" xmlns="http://www.w3.org/2000/svg" xmlns:xlink="http://www.w3.org/1999/xlink">
    <title>backend-api</title>
    <g id="backend-api" stroke="none" stroke-width="1" fill="none" fill-rule="evenodd">
        <rect id="Rectangle" fill="#F1F5F9" x="0" y="0" width="54" height="54" rx="5"></rect>
        <g id="Group" transform="translate(6, 6)">
            <g id="icons8-code-50">
                <rect id="Rectangle" fill="#CBD5E1" x="0" y="0" width="42" height="42" rx="4"></rect>
                <polygon id="Path" fill="#475569" fill-rule="nonzero" points="4 9.20833333 37.3333333 9.20833333 37.3333333 37.3333333 4 37.3333333"></polygon>
                <path d="M11.8125,23.1666667 L15.4583333,25.3541667 L15.4583333,27.9583333 L9.20833333,24.1041667 L9.20833333,21.9166667 L15.4583333,18.5833333 L15.4583333,21.1875 L11.8125,23.1666667 Z M19.625,30.0416667 L17.5416667,30.0416667 L21.7083333,15.4583333 L23.7916667,15.4583333 L19.625,30.0416667 Z M29.5208333,23.2708333 L25.875,21.1875 L25.875,18.5833333 L32.125,22.125 L32.125,24.3125 L25.875,27.9583333 L25.875,25.3541667 L29.5208333,23.2708333 Z" id="Shape" fill="#FFEB3B" fill-rule="nonzero"></path>
            </g>
            <path d="M5.89687468,3.04166667 C4.74628145,3.04166667 3.81354134,3.97440677 3.81354134,5.125 C3.81354134,6.27559323 4.74628145,7.20833333 5.89687468,7.20833333 C7.0474679,7.20833333 7.98020801,6.27559323 7.98020801,5.125 C7.98020801,3.97440677 7.0474679,3.04166667 5.89687468,3.04166667 Z" id="Path-Copy" fill="#90A4AE" fill-rule="nonzero"></path>
            <path d="M12.1468747,3.04166667 C10.9962814,3.04166667 10.0635413,3.97440677 10.0635413,5.125 C10.0635413,6.27559323 10.9962814,7.20833333 12.1468747,7.20833333 C13.2974679,7.20833333 14.230208,6.27559323 14.230208,5.125 C14.230208,3.97440677 13.2974679,3.04166667 12.1468747,3.04166667 Z" id="Path-Copy-2" fill="#475569" fill-rule="nonzero"></path>
        </g>
    </g>
</svg>

<svg xmlns="http://www.w3.org/2000/svg" width="54" height="54"><g fill="none" fill-rule="evenodd"><rect width="54" height="54" fill="#F1F5F9" rx="5"/><g transform="translate(6 6)"><rect width="42" height="42" fill="#CBD5E1" rx="4"/><path fill="#475569" fill-rule="nonzero" d="M4 9.208h33.333v28.125H4z"/><path fill="#FFEB3B" fill-rule="nonzero" d="m11.813 23.167 3.645 2.187v2.604l-6.25-3.854v-2.187l6.25-3.334v2.605l-3.646 1.979Zm7.812 6.875h-2.083l4.166-14.584h2.084l-4.167 14.584Zm9.896-6.771-3.646-2.084v-2.604l6.25 3.542v2.188l-6.25 3.645v-2.604l3.646-2.083Z"/></g><path fill="#90A4AE" fill-rule="nonzero" d="M11.897 9.042a2.083 2.083 0 1 0 0 4.166 2.083 2.083 0 0 0 0-4.166Z"/><path fill="#475569" fill-rule="nonzero" d="M18.147 9.042a2.083 2.083 0 1 0 0 4.166 2.083 2.083 0 0 0 0-4.166Z"/></g></svg>
